X:542
T: BOM BAM BEIER
N: E1822
O: Europa, Mitteleuropa, Deutschland, Niederrhein
R: Kinder -, Schaukel -, Reiter - Lied
M: 2/4
L: 1/16
K: G
 | G4A4 | B4G2
D2 | G2G2A2A2 | B4G2
B2 | A2A2G4 | B2AAG4 |
d3GG2G2 | G2F2G4

